images/fq1.svg

<svg width="18" height="25" viewBox="0 0 18 25" fill="none" xmlns="http://www.w3.org/2000/svg">
<path d="M13.1746 7.82981C10.6001 7.82981 8.50567 9.92479 8.50567 12.4998C8.50567 15.0749 10.6002 17.1698 13.1746 17.1698C15.749 17.1698 17.8435 15.0749 17.8435 12.4998C17.8435 9.92474 15.749 7.82981 13.1746 7.82981ZM13.1746 9.29497C13.7708 9.29441 14.3553 9.46131 14.8613 9.77665L10.452 14.1869C10.1367 13.6807 9.96986 13.0962 9.97044 12.4998C9.97049 10.7326 11.4078 9.29497 13.1746 9.29497ZM13.1746 15.7047C12.5783 15.7052 11.9939 15.5383 11.4878 15.223L15.8971 10.8127C16.2124 11.3189 16.3793 11.9034 16.3787 12.4998C16.3787 14.267 14.9413 15.7047 13.1746 15.7047ZM4.06194 1.98605H4.17722C4.41076 2.2713 4.80621 2.45924 5.25386 2.45924H8.22847C8.67612 2.45924 9.07158 2.27135 9.30512 1.98605H9.4204V6.94642H10.8852V1.2535C10.8852 0.848912 10.5573 0.520939 10.1528 0.520939H9.34594C9.11952 0.205905 8.70352 0 8.22847 0H5.25386C4.77887 0 4.36281 0.205905 4.13645 0.52089H3.32958C2.92509 0.52089 2.59717 0.848863 2.59717 1.25345V6.94642H4.06199V1.98605H4.06194Z" fill="#BDD0EA"/>
<path d="M12.9046 18.6325C9.5225 18.6325 6.77089 15.8803 6.77089 12.4973C6.77089 10.9297 7.36204 9.49774 8.33273 8.41211H2.59356C1.05428 8.41211 0 9.66473 0 11.2044V20.9575C0 22.4297 1.14515 23.6386 2.59107 23.7418V24.2675C2.59107 24.6721 2.919 25.0001 3.32348 25.0001C3.72797 25.0001 4.05589 24.6721 4.05589 24.2675V23.7498H9.4269V24.2675C9.4269 24.6721 9.75482 25.0001 10.1593 25.0001C10.5638 25.0001 10.8917 24.6721 10.8917 24.2675V23.7418C12.3377 23.6385 13.4828 22.4297 13.4828 20.9575V18.6051C13.2924 18.6229 13.0996 18.6325 12.9046 18.6325Z" fill="#BDD0EA"/>
</svg>

<svg width="18" height="25" fill="none" xmlns="http://www.w3.org/2000/svg"><path d="M13.175 7.83a4.675 4.675 0 00-4.67 4.67 4.675 4.675 0 004.67 4.67 4.675 4.675 0 004.668-4.67 4.675 4.675 0 00-4.668-4.67zm0 1.465c.596 0 1.18.166 1.686.482l-4.409 4.41A3.185 3.185 0 019.97 12.5a3.208 3.208 0 013.205-3.205zm0 6.41a3.191 3.191 0 01-1.687-.482l4.41-4.41a3.208 3.208 0 01-2.723 4.892zM4.062 1.986h.115c.234.285.63.473 1.077.473h2.974c.448 0 .844-.188 1.077-.473h.115v4.96h1.465V1.254a.732.732 0 00-.732-.733h-.807C9.12.206 8.704 0 8.228 0H5.254c-.475 0-.891.206-1.118.52H3.33a.732.732 0 00-.733.733v5.693h1.465v-4.96z" fill="#BDD0EA"/><path d="M12.905 18.633a6.141 6.141 0 01-6.134-6.136c0-1.567.591-3 1.562-4.085h-5.74C1.055 8.412 0 9.665 0 11.204v9.753a2.795 2.795 0 002.591 2.785v.525a.733.733 0 101.465 0v-.517h5.37v.517a.733.733 0 101.466 0v-.525a2.795 2.795 0 002.59-2.785v-2.352a6.11 6.11 0 01-.577.027z" fill="#BDD0EA"/></svg>
